X: 4
T: The Foggy Dew
R: barndance
M: 4/4
L: 1/8
K: Emin
|Bd |"Em"e2 dB e2 dB |"D"A2 B2 D2 EF | "Em"GB AG E2 D2| "Em"E6 Bd |
"Em"e2 dB e2 dB |"D"A2 B2 D2 EF | "Em"GB AG E2 D2 | E6 D/2E/2F/2 |
"G"G3 B d2 c B | "D"A2 GA "Em"B2 GA | "Em"B2 gf ed Bd | "Em" e3 f e2 Bd| "Em"e2 dB e2 dB |
"D"A2 B2 D2 EF | "Em"G B A G E2 D2 | "Em"E6 z2|


Tune 2516	Setting 2516

